X: 117
T: Miss Ray's Jigg
B: 204 Favourite Country Dances
N: Published by Straight & Skillern, London ca.1775
F: http://imslp.org/wiki/204_Favourite_Country_Dances_(Various) p.59 #117
Z: 2014 John Chambers <jc:trillian.mit.edu>
N: The left edge of the dance description is missing a lot of pixels.
M: 6/8
L: 1/8
K: G
% - - - - - - - - - - - - - - - - - - - - - - - - -
|:\
G3 DGB | A3 DAc | B2c dBG | F2G AFD |\
G3 DGB | A3 DAc | BcB AGF | G3 G,3 :|
|:\
d3 dBG | F2G AFD | E2E EDC | B,2C DCB, |\
d2d dBG | F2G AFD | EcB AGF | G3 G,3 :|
% - - - - - - - - - - - - - - - - - - - - - - - - -
%%begintext align
%% Hands across and Back again cross over 2 CU.
%% Back up and cast off Set corners and turn
%% [ILLEGIBLE]
%%endtext

%%sep 1 1 500
%%sep 1 1 500
